fast-forward-5.svg

<svg fill="currentColor" viewBox="0 0 24 24"><path d="M11.5 3c2.65 0 5.05 1 6.9 2.6L21 3v7h-7l2.62-2.62C15.23 6.22 13.46 5.5 11.5 5.5c-3.54 0-6.55 2.31-7.6 5.5l-2.37-.78C2.92 6.03 6.85 3 11.5 3M9 12h6v2h-4v2h2a2 2 0 0 1 2 2v2c0 1.11-.89 2-2 2H9v-2h4v-2H9z"/></svg>

<svg  viewBox="0 0 24 24" fill="currentColor"><path  d="M11.5 3C14.15 3 16.55 4 18.4 5.6L21 3V10H14L16.62 7.38C15.23 6.22 13.46 5.5 11.5 5.5C7.96 5.5 4.95 7.81 3.9 11L1.53 10.22C2.92 6.03 6.85 3 11.5 3M9 12H15V14H11V16H13C14.11 16 15 16.9 15 18V20C15 21.11 14.11 22 13 22H9V20H13V18H9V12Z"/></svg>
